-- Notochord feed and query demo patterns
:set

p "choosepitch" 
  $ ncinst "7 [9*3 [17 25]]"
  # ncpitch "-1 [48 -1]"
  # ncvel (range 30 120 $ sine)
  # cps 1 
  # legato 4

hush

p "chooseinst"
  $ ncinst "-1"--"7 [-1]@7"
  <| ncpitch (run 8 + 48)
  # ncvel (range 30 120 $ sine)
  # cps 1
  # legato 0.5

hush

once $ ncreset "1"

-- p "dirt" $ s "supervibe"